src/4-icons/cancel.svg

<svg width="260" height="260" viewBox="0 0 260 260" fill="none" xmlns="http://www.w3.org/2000/svg">
<g opacity="0.9">
<path d="M82.9497 188.69C80.2161 191.423 75.7839 191.423 73.0503 188.69C70.3166 185.956 70.3166 181.524 73.0503 178.79L121.971 129.87L73.0503 80.9497C70.3166 78.2161 70.3166 73.7839 73.0503 71.0502C75.7839 68.3166 80.2161 68.3166 82.9497 71.0502L130.369 118.47L177.789 71.0502C180.522 68.3166 184.954 68.3166 187.688 71.0502C190.422 73.7839 190.422 78.2161 187.688 80.9497L138.768 129.87L187.688 178.79C190.422 181.524 190.422 185.956 187.688 188.69C184.954 191.423 180.522 191.423 177.789 188.69L130.369 141.27L82.9497 188.69Z" fill="black"/>
<path fill-rule="evenodd" clip-rule="evenodd" d="M0 130C0 201.797 58.203 260 130 260C201.797 260 260 201.797 260 130C260 58.203 201.797 0 130 0C58.203 0 0 58.203 0 130ZM14 130C14 194.065 65.935 246 130 246C194.065 246 246 194.065 246 130C246 65.935 194.065 14 130 14C65.935 14 14 65.935 14 130Z" fill="black"/>
</g>
</svg>

<svg width="260" height="260" viewBox="0 0 260 260" fill="none" xmlns="http://www.w3.org/2000/svg"><g opacity=".9" fill="#000"><path d="M82.95 188.69a7.001 7.001 0 0 1-9.9-9.9l48.921-48.92-48.92-48.92a7 7 0 1 1 9.899-9.9l47.419 47.42 47.42-47.42a7 7 0 1 1 9.899 9.9l-48.92 48.92 48.92 48.92a7 7 0 0 1-9.899 9.9l-47.42-47.42-47.42 47.42Z"/><path fill-rule="evenodd" clip-rule="evenodd" d="M0 130c0 71.797 58.203 130 130 130s130-58.203 130-130S201.797 0 130 0 0 58.203 0 130Zm14 0c0 64.065 51.935 116 116 116s116-51.935 116-116S194.065 14 130 14 14 65.935 14 130Z"/></g></svg>
